view/frontend/web/svg/flags/tn.svg

<svg width="24" height="24" viewbox="0 0 20 15" viewBox="0 0 20 15" fill="none" xmlns="http://www.w3.org/2000/svg">
<g clip-path="url(#clip0_270_60796)">
<rect width="20" height="15" fill="white"/>
<path fill-rule="evenodd" clip-rule="evenodd" d="M0 0V15H20V0H0Z" fill="#E31D1C"/>
<mask id="mask0_270_60796" style="mask-type:luminance" maskUnits="userSpaceOnUse" x="0" y="0" width="20" height="15">
<path fill-rule="evenodd" clip-rule="evenodd" d="M0 0V15H20V0H0Z" fill="white"/>
</mask>
<g mask="url(#mask0_270_60796)">
<path fill-rule="evenodd" clip-rule="evenodd" d="M10 12.5C12.7614 12.5 15 10.2614 15 7.5C15 4.73858 12.7614 2.5 10 2.5C7.23858 2.5 5 4.73858 5 7.5C5 10.2614 7.23858 12.5 10 12.5Z" fill="#F7FCFF"/>
<path fill-rule="evenodd" clip-rule="evenodd" d="M10.8767 11.0317C10.8767 11.0317 8.24145 10.3128 8.24145 7.48341C8.24145 4.65404 10.8767 3.87346 10.8767 3.87346C9.787 3.45171 6.59802 4.09882 6.59802 7.48341C6.59802 10.868 9.87596 11.4775 10.8767 11.0317ZM10.7316 6.86772L9.4242 7.34542L10.8294 7.83661L10.8767 9.15219L11.7319 8.13014L13.1419 8.23023L12.126 7.40139L12.7378 6.20445L11.5427 6.60673L10.7147 5.57178L10.7316 6.86772Z" fill="#E31D1C"/>
</g>
</g>
<defs>
<clipPath id="clip0_270_60796">
<rect width="20" height="15" fill="white"/>
</clipPath>
</defs>
</svg>

<svg width="24" height="24" viewbox="0 0 20 15" fill="none" xmlns="http://www.w3.org/2000/svg">
  <mask id="a" maskUnits="userSpaceOnUse" x="0" y="0" width="20" height="15">
    <path fill="#fff" d="M0 0h20v15H0z"/>
  </mask>
  <g mask="url(#a)">
    <path fill-rule="evenodd" clip-rule="evenodd" d="M0 0v15h20V0H0z" fill="#E31D1C"/>
    <mask id="b" maskUnits="userSpaceOnUse" x="0" y="0" width="20" height="15">
      <path fill-rule="evenodd" clip-rule="evenodd" d="M0 0v15h20V0H0z" fill="#fff"/>
    </mask>
    <g mask="url(#b)" fill-rule="evenodd" clip-rule="evenodd">
      <path d="M10 12.5a5 5 0 100-10 5 5 0 000 10z" fill="#F7FCFF"/>
      <path d="M10.877 11.032s-2.636-.72-2.636-3.549c0-2.829 2.636-3.61 2.636-3.61-1.09-.421-4.279.226-4.279 3.61 0 3.385 3.278 3.994 4.279 3.549zm-.145-4.164l-1.308.477 1.405.492.048 1.315.855-1.022 1.41.1-1.016-.829.612-1.197-1.195.403-.828-1.035.017 1.296z" fill="#E31D1C"/>
    </g>
  </g>
</svg>
